X: 24789
T: Maggie Cameron
R: strathspey
M: 4/4
K: Amixolydian
e>Ac>A (3cde c>A|d>BG>B B<dd<f||
(3agf g>e (3fed e>c|(3dcB g>B B<dd<f||
e>Ac>A (3cde c>A|(3dcB g>B B<dd<f||
(3agf g>e (3fed e>c|(3dcB g>B B<d||

